Mono Glyph Icons/misc/misc-unfilled/stroller.svg

<svg height="48" viewBox="0 -960 960 960" width="48" xmlns="http://www.w3.org/2000/svg"><path d="m670.32-40q-24.32 0-41.82-17.68-17.5-17.67-17.5-42.5 0-23.82 17.68-41.82 17.67-18 42.5-18 23.82 0 41.82 18.18 18 18.17 18 42.5 0 24.32-18.18 41.82-18.17 17.5-42.5 17.5zm-430.5 0q-24.82 0-42.32-17.68-17.5-17.67-17.5-42.5 0-23.82 17.68-41.82 17.67-18 42.5-18 24.82 0 42.32 18.18 17.5 18.17 17.5 42 0 24.82-17.68 42.32-17.67 17.5-42.5 17.5zm104.18-274h262v-310zm-82 94q-37 0-52-33t9-61l445.09-526q19.17-22.02 49.03-37.51 29.87-15.49 61.85-15.49 63.52 0 107.28 44.64 43.75 44.65 43.75 107.24v1.12q0 19.75-13.68 33.37-13.67 13.63-34 13.63-20.32 0-33.82-13.7-13.5-13.69-13.5-33.15v-1.15q0-23.76-16.25-40.38-16.26-16.62-39.47-16.62-13.17 0-23.48 6.5-10.3 6.5-20.8 19.5l-30 35.09v422.91q0 38.77-27.91 66.39-27.9 27.61-67.09 27.61zm157-368-205-205q-14-12.66-11.5-31.33 2.5-18.67 17.5-28.67 42-24 92.07-36.5 50.07-12.5 100.43-12.5 55.09 0 110.8 16 55.7 16 108.7 46zm-6-139 57-69q-14-6-28.5-8.5t-29.64-2.5q-17.86 0-35.36 2t-34.5 7z"/></svg>

<svg xmlns="http://www.w3.org/2000/svg" height="48" viewBox="0 -960 960 960" width="48"><path d="M670.32-40Q646-40 628.5-57.68 611-75.35 611-100.18 611-124 628.68-142q17.67-18 42.5-18Q695-160 713-141.82q18 18.17 18 42.5Q731-75 712.82-57.5 694.65-40 670.32-40Zm-430.5 0Q215-40 197.5-57.68 180-75.35 180-100.18 180-124 197.68-142q17.67-18 42.5-18 24.82 0 42.32 18.18 17.5 18.17 17.5 42Q300-75 282.32-57.5 264.65-40 239.82-40ZM344-314h262v-310L344-314Zm-82 94q-37 0-52-33t9-61l445.09-526q19.17-22.02 49.03-37.51Q742.99-893 774.97-893q63.52 0 107.28 44.64Q926-803.71 926-741.12v1.12q0 19.75-13.68 33.37-13.67 13.63-34 13.63-20.32 0-33.82-13.7-13.5-13.69-13.5-33.15V-741q0-23.76-16.25-40.38Q798.49-798 775.28-798q-13.17 0-23.48 6.5Q741.5-785 731-772l-30 35.09V-314q0 38.77-27.91 66.39Q645.19-220 606-220H262Zm157-368L214-793q-14-12.66-11.5-31.33Q205-843 220-853q42-24 92.07-36.5Q362.14-902 412.5-902q55.09 0 110.8 16Q579-870 632-840L419-588Zm57 119Zm-63-258 57-69q-14-6-28.5-8.5t-29.64-2.5q-17.86 0-35.36 2t-34.5 7l71 71Zm0 0Z"/></svg>
